!!!COM: Mozart	
!!!OTL: 12 Variations on "Ah Vous dirais-je, Maman" for the Piano,	
!!!Variation: 5 c	
**kern	**kern
*M2/4	*M2/4
=-	=-
8r	4.cc)
(16CLL	.
16EJJ	.
4G)	.
.	(16ccLL
.	16eeJJ
=	=
8r	4.gg)
(16cLL	.
16eJJ	.
4g)	.
.	(16ggLL
.	16eeJJ
=	=
8r	4.aa)
(16fLL	.
16aJJ	.
4c)	.
.	(16aaLL
.	16cccJJ
=	=
8r	4.gg)
(16eLL	.
16gJJ	.
4c)	.
.	(16eeLL
.	16ggJJ)
=	=
8d	8r
8r	(16ggLL
.	16ff#JJ)
8B	8r
8r	(16ddLL
.	16ffJJ)
=	=
8c	8r
8r	(16ffLL
.	16eeJJ)
8E	8r
8r	(16ggLL
.	16eeJJ)
=	=
8F	8r
8r	(16cc#LL
.	16ddJJ)
8G	8r
8r	(16ffLL
.	16ddJJ)
=	=
8c	8r
8r	(16bLL
.	16ccJJ)
8C	4r
8r	.
==	==
*-	*-
